Adwaita++-Dark/actions/22/code-block.svg

<svg height="22" viewBox="0 0 22 22" width="22" xmlns="http://www.w3.org/2000/svg">
  <path d="m5 1.0039062v6h6v-6zm-4 8v5.9999998h6v-5.9999998zm8 0v5.9999998h6v-5.9999998z" fill="#e6ddff" transform="translate(3 3)"/>
</svg>

<svg xmlns="http://www.w3.org/2000/svg" width="22" height="22" viewBox="0 0 22 22">
 <defs>
  <style id="current-color-scheme" type="text/css">
   .ColorScheme-Text { color:#E6DDFF; } .ColorScheme-Highlight { color:#4285f4; }
  </style>
 </defs>
 <path style="fill:currentColor" class="ColorScheme-Text" d="M 5 1.0039062 L 5 7.0039062 L 11 7.0039062 L 11 1.0039062 L 5 1.0039062 z M 1 9.0039062 L 1 15.003906 L 7 15.003906 L 7 9.0039062 L 1 9.0039062 z M 9 9.0039062 L 9 15.003906 L 15 15.003906 L 15 9.0039062 L 9 9.0039062 z" transform="translate(3 3)"/>
</svg>
